X:1
T:Op.59, D.756
T:Du liebst mich nicht
T:Op.59, D.756
T:1. Du liebst mich nicht
T:Franz Schubert
T:August von Platen
T:OpenScore (CC0)
T:OpenScore (CC0)
C:Franz Schubert
Z:August von Platen
Z:OpenScore (CC0)
%%score 1 { ( 2 5 ) | ( 3 4 ) }
L:1/8
Q:1/4=80
M:3/4
K:C
V:1 treble nm="Voice"
V:2 treble nm="Piano"
V:5 treble 
V:3 bass 
V:4 bass 
V:1
"^Mässig" z6 | z6 | z6 | z2 z2 z A | A4 A3/2 A/ | A>B A3 A | (c3 B) A^G | A4 z E | A4 A A | %9
w: |||Mein|Herz ist zer-|ris- * sen, du|liebst * mich *|nicht! du|lie\-- ssest  mich's|
 A>B A2 z e | (c3 B) A^G | A4 z B | c4 d3/2 c/ | A2 G2 z B | c4 d3/2 c/ | (A2 G2) z G | %16
w: wis- * sen, du|liebst * mich *|nicht! Wie-|wohl ich dir|fle- hend und|wer- bend er-|schien, * und|
 d4 _e3/2 d/ | _B2 A2 z _e | (_e3 _d) c_B | _A4 z _B | =B4 B B | c>B ^F2 z B | (d3 A) B3/2 A/ | %23
w: lie- be- be-|flis- sen, du|liebst * mich *|nicht! Du|hast es ge-|spro- * chen, mit|Wor- * ten ge-|
 G4 z A | B4 B B | c>B ^F2 z _d | (_d3 _e) d_c | _B4 z2 | z2 z _B B B/ B/ | _d2 _B B B B/ B/ | %30
w: sagt, mit|all- zu- ge-|wis- * sen, du|liebst * mich *|nicht!|So soll ich die|Ster- ne, so soll ich den|
 (_d2 _B) d =d c/ =B/ | B2 c e d3/2 c/ | B3 B B B/ B/ | d2 B B B B/ B/ | (d2 B) d _e _d/ c/ | %35
w: Mond, * die Son- ne ver-|mis- sen? du liebst mich|nicht! Was blüht mir die|Ro- se, was blüht der Jas-|min,  _ was blühn die Nar-|
 c2 _d f _e c | (=e3 d) cB | A z z f _e3/2 c/ | (=e3 d) cB | A3 ^c d c/ B/ | ^c2 e c d c/ B/ | %41
w: zis- sen? du liebst, du|liebst * mich *|nicht, du liebst, du|liebst * mich *|nicht! So soll ich die|Ster- ne, so soll ich den|
 (^c2 e)!p! c!<(! ^f f/ f/!<)! | ^f4 e d | ^c3 =c{B} e3/2 ^G/ | A3 ^c d c/ B/ | ^c2 e c d c/ B/ | %46
w: Mond,  _ die Son- ne ver-|mis- sen? du|liebst, du liebst mich|nicht! Was blüht mir die|Ro- se, was blüht der Jas-|
 (^c2 e) c ^f f/ f/ | ^f4 e d | ^c3 =c{B} e2- | e !>!^d e3 !>!^f | e3 !>!^f e3/2 ^G/ | A4 z2 | z6 | %53
w: min,  _ was blüh'n die Nar-|zis- sen? du|liebst, du liebst |_  mich  nicht, du|liebst, du  liebst  mich|nicht!||
 z6 | z6 | !fermata!z6 |] %56
w: |||
V:2
!pp!"^sempre ligato" [A,C]3 [A,D][A,B,][A,D] | [A,C]2 [A,E]4 | [A,G]3 [A,F][_B,CFA][B,CEG] | %3
 [A,CFA]6 | [A,C]3 [A,D][A,B,][A,C] | [A,D]4 [A,C]2 | [CE]3 [B,E][A,E][^G,E] | %7
 [A,E] !>!E2 [CE][DE][B,E] | C3 [A,D][A,B,][A,C] | [A,D]4 [A,C]2 | !>![CE]3 [B,E][A,E][^G,E] | %11
 [A,E] !>!E2 E[CE][B,E] | [_B,E]3 [CF][A,D][B,E] | ([C-F]2 [CE]) [DE][CE][=B,E] | %14
 [_B,E]3 [CF][A,D][B,E] | ([C-F]2 [CE]) [DE][CE][EG] | ^F3 G_BA | %17
 ([D-G]2 [D^F])!<(! [DF][_EG][E_A]!<)! |!>(! [_Ac]3!>)! [F_B][_EA][EG] | [_E_A] !>!E2 E[CE][_B,E] | %20
 [=A,^D]3 [=B,D][A,D][B,D] | [=C^D]3!<(! [A,D][CD][B,E]!<)! |!>(! [=DG]3 [EA]!>)![DG][D^F] | %23
 [DG] D2 D[B,D][A,D] | [A,^D]3 [B,D][A,D][B,D] | [=C^D]3 [B,D][A,D][_B,_D] | %26
!>(! [_D_G]3!>)! [_E_A][DG][DF] |!p! [_D_G] !>!G2 [DG]D[DG] |!>(! [_D=G]3!>)! [D_G]D[DG] | %29
!p!!>(! [_D=G]3!>)! [D_G]D[DG] |!p!!>(! [_D=G]3!>)! [DG]"_cresc."[=DF^G][DFG] | %31
 [EA]3!>(! [Ece][FBd][^DAc]!>)! | [E^GB] !>!E2!p! [D=G]D[DG] |!>(! [D_A]3!>)! [DG]D[DG] | %34
!p!!>(! [D_A]3!>)!!<(! [DA][_E_G=A][EGA] | [F_B]3!<)!!ff! [F_df][Fc_e][FAc] | %36
!>(! [=Ec=e]3 [FBd]!>)![EAc][DE^GB] | [CEA][K:bass]!f!!>(! [F,_DF]2 [F,DF]!>)![F,C_E][F,A,C] | %38
!ff!!>(! [=E,C=E]3 [F,B,D] [E,A,C][D,E,^G,B,]!>)! | %39
!pp! [^C,E,A,][K:treble]!>(! [A,^CE]2!>)!!pp! [A,CE][^G,DE][G,B,E] | %40
 [A,^CE]!>(! [A,CA]2!>)! [A,CE][^G,DE][G,B,E] | %41
 [A,^CE]!>(! [A,CA]2!>)!!<(! [A,CE][A,=C^D^F][A,CDF]!<)! | %42
!>(! [^G,^B,^D^F]4!mf! [G,^CE]!>)!!p![=F,=B,=D] |[K:bass] [E,A,^C]3 [E,A,=C] [E,A,B,][D,E,^G,B,] | %44
 [^C,E,A,][K:treble]!>(! [A,^CE]2!>)! [A,CE][^G,DE][G,B,E] | %45
 [A,^CE]!>(! [A,CA]2!>)! [A,CE] [^G,DE][G,B,E] | %46
 [A,^CE]!>(! [A,CA]2!>)!!<(! [A,CE][A,=C^D^F][A,CDF]!<)! | %47
!>(! [^G,^B,^D^F]4 [G,^CE]!>)!!p![=F,=B,=D] |[K:bass] [E,A,^C]3 [E,A,=C] [D,E,^G,B,][^C,E,=G,^A,] | %49
"_cresc." [D,E,^G,B,]3 [^C,E,=G,^A,] [D,E,^G,B,]2- | %50
 [D,E,G,B,]!ff![^C,E,=G,^A,]!>(! [D,E,^G,B,]2- [D,E,G,B,]>[D,E,G,B,]!>)! | %51
!p! [^C,E,A,]!>(! A,2 A,A,[A,B,]!>)! |!pp! [A,=C]2[K:treble]!>(! [A,E]4 | %53
 [A,G]3 [A,F][A,C][A,D]!>)! |!ppp! [^G,E]6 |[K:bass] !fermata![E,A,C]6 |] %56
V:3
 [A,,E,]3 [A,,F,][A,,D,][A,,F,] | [A,,E,]2 [A,,C,]4 | [F,,C,]3 [F,,C,][C,,C,][C,,C,] | [F,,C,]6 | %4
 [A,,E,]3 [A,,F,][A,,D,][A,,E,] | [A,,F,]4 [A,,E,]2 | [E,,E,]3 [E,,D,E,][E,,C,E,][E,,B,,E,] | %7
 [A,,C,E,] E,2 [E,A,][E,B,][E,^G,] | [A,,E,]3 [A,,F,][A,,D,][A,,E,] | [A,,F,]4 [A,,E,]2 | %10
 [E,,E,]3 [E,,D,E,][E,,C,E,][E,,B,,E,] | [A,,C,E,] E,2 [E,C][E,A,][E,^G,] | =G,3 A,F,G, | %13
 ([C,-A,]2 [C,G,]) [C,G,][C,G,][C,G,] | G,3 A,F,G, | ([C,-A,]2 [C,G,]) [C,G,][C,G,][^C,G,_B,] | %16
 A,3 _B,G,A, | ([D,-_B,]2 [D,A,]) [D,A,][_D,_E,_B,][C,E,_A,] | _E3 _DCD | %19
 [_A,C] _E,2 [E,C][E,A,][E,G,] | [=B,,^F,]3 [B,,G,][B,,F,][B,,G,] | %21
 [B,,A,]3 [B,,^F,][B,,A,][B,,G,] | [B,,G,]3 [^C,A,][D,B,][D,=C] | %23
 [G,B,] !>!D,2 [D,B,][D,G,][D,^F,] | [B,,^F,]3 [B,,G,][B,,F,][B,,G,] | %25
 [B,,A,]3 [B,,G,][B,,^F,][_B,,_G,] | [_D,_B,]3 [D,_C][D,B,][D,_A,] | [_G,_B,] G,2 [G,B,]B,[G,B,] | %28
 [=E,_B,]3 [_G,B,]B,[G,B,] | [=E,_B,]3 [_G,B,]B,[G,B,] | [=E,_B,]3 [E,B,][E,=B,][E,B,] | %31
 [E,C]3 [E,C][E,B,D][E,A,C] | [E,^G,B,] E,2 [=G,B,]B,[G,B,] | [F,B,]3 [G,B,]B,[G,B,] | %34
 [F,B,]3 [F,B,][F,C][F,C] | [F,_D]3 [F,D][F,C_E][F,A,C] | [=E,C]3 [E,B,D][E,A,C][E,^G,B,] | %37
 [A,,E,A,] [F,,_D,]2 [F,,D,][F,,C,_E,][F,,A,,C,] | [=E,,C,]3 [E,,B,,] [E,,C,][E,,^G,,B,,] | %39
 [A,,,A,,] [A,,E,]2 [A,,^C,E,][A,,B,,E,][A,,D,E,] | %40
 [A,,^C,E,] [A,,C,E,]2 [A,,C,E,][A,,B,,E,][A,,D,E,] | [A,,^C,E,] [A,,E,]2 A,,[A,,,A,,][A,,,A,,] | %42
!ff! [^G,,,^G,,]4 [^C,,^C,][D,,D,] | E,,3 E,, E,,E,, | %44
 [A,,,A,,] [A,,E,]2 [A,,^C,E,][A,,B,,E,][A,,D,E,] | %45
 [A,,^C,E,] [A,,E,]2 [A,,C,E,] [A,,B,,E,][A,,D,E,] | %46
 [A,,^C,E,] [A,,E,]2 [A,,,A,,][A,,,A,,][A,,,A,,] |!ff! [^G,,,B,,,^G,,]4 [^C,,^C,][D,,D,] | %48
 E,,3 E,, E,,E,, | E,,3 E,, E,,2- | E,,E,, E,,2- E,,>E,, | [A,,,A,,] A,,2 A,,A,,A,, | %52
 [A,,E,]2 [A,,C,]4 | [F,,C,]3 [F,,C,][F,,C,][F,,A,,] | [E,,B,,]6 | !fermata![A,,,A,,]6 |] %56
V:4
 x6 | x6 | x6 | x6 | x6 | x6 | x6 | x6 | x6 | x6 | x6 | x6 | C,6 | x6 | C,6 | x6 | D,6 | x6 | %18
 _E,4 E,2 | x6 | x6 | x6 | x6 | x6 | x6 | x6 | x6 | x6 | x6 | x6 | x6 | x6 | x6 | x6 | x6 | x6 | %36
 x6 | x6 | x6 | x6 | x6 | x6 | x6 | x6 | x6 | x6 | x6 | x6 | x6 | x6 | x6 | x6 | x6 | x6 | x6 | %55
 x6 |] %56
V:5
 x6 | x6 | x6 | x6 | x6 | x6 | x6 | x6 | x6 | x6 | x6 | x6 | x6 | x6 | x6 | x6 | D4 _B,C | x6 | %18
 x6 | x6 | x6 | x6 | x6 | x6 | x6 | x6 | x6 | x6 | x6 | x6 | x6 | x6 | x6 | x6 | x6 | x6 | x6 | %37
 x[K:bass] x5 | x6 | x[K:treble] x5 | x6 | x6 | x6 |[K:bass] x6 | x[K:treble] x5 | x6 | x6 | x6 | %48
[K:bass] x6 | x6 | x6 | x6 | x2[K:treble] x4 | x6 | x6 |[K:bass] x6 |] %56

